packages/icons/src/components/CategoryIcon/assets/privacy.svg

<svg width="20" height="20" viewBox="0 0 20 20" fill="none" xmlns="http://www.w3.org/2000/svg">
<path d="M12 5.41309C11.9999 3.90976 11.0869 3 10 3C8.9131 3 8.00013 3.90976 8 5.41309V6H6V5.41309C6.00014 3.10268 7.53283 1 10 1C12.4672 1 13.9999 3.10268 14 5.41309V6H12V5.41309Z" fill="#A060F6" className="fillStrong" />
<path d="M14.4004 6C15.9524 6.00023 17 7.38598 17 8.81836V15.1816C17 16.614 15.9524 17.9998 14.4004 18H5.59961C4.0476 17.9998 3 16.614 3 15.1816V8.81836C3 7.38598 4.0476 6.00023 5.59961 6H14.4004ZM5.59961 8C5.38445 8.00029 5 8.24289 5 8.81836V15.1816C5 15.7571 5.38445 15.9997 5.59961 16H14.4004C14.6156 15.9997 15 15.7571 15 15.1816V8.81836C15 8.2429 14.6156 8.00029 14.4004 8H5.59961ZM10 9.5C11.4707 9.50014 12.8008 10.3049 13.5459 11.5996C13.6885 11.8474 13.6885 12.1526 13.5459 12.4004C12.8008 13.6952 11.4707 14.4999 10 14.5C8.5292 14.4998 7.19822 13.6953 6.45312 12.4004C6.31072 12.1527 6.31071 11.8473 6.45312 11.5996C7.19822 10.3047 8.5292 9.50017 10 9.5ZM10 10.75C9.30975 10.7502 8.75 11.3097 8.75 12C8.75003 12.6903 9.30977 13.2498 10 13.25C10.6903 13.2499 11.25 12.6903 11.25 12C11.25 11.3096 10.6903 10.7501 10 10.75Z" fill="#521094" className="fill" />
</svg>

<svg xmlns="http://www.w3.org/2000/svg" width="20" height="20" fill="none" viewBox="0 0 20 20">
    <path fill="#a060f6" d="M12 5.413C12 3.91 11.087 3 10 3s-2 .91-2 2.413V6H6v-.587C6 3.103 7.533 1 10 1s4 2.103 4 4.413V6h-2z" className="fillStrong"/>
    <path fill="#521094" d="M14.4 6C15.952 6 17 7.386 17 8.818v6.364C17 16.614 15.952 18 14.4 18H5.6C4.048 18 3 16.614 3 15.182V8.818C3 7.386 4.048 6 5.6 6zM5.6 8c-.216 0-.6.243-.6.818v6.364c0 .575.384.818.6.818h8.8c.216 0 .6-.243.6-.818V8.818c0-.575-.384-.818-.6-.818zM10 9.5c1.47 0 2.8.805 3.546 2.1a.8.8 0 0 1 0 .8C12.8 13.695 11.47 14.5 10 14.5s-2.802-.805-3.547-2.1a.8.8 0 0 1 0-.8C7.198 10.305 8.53 9.5 10 9.5m0 1.25a1.25 1.25 0 1 0 0 2.5 1.25 1.25 0 0 0 0-2.5" className="fill"/>
</svg>
